Obsidian/actions/16s/fcitx-remind-active.svg

<svg height="16" width="16" xmlns="http://www.w3.org/2000/svg"><path d="m8 0c-2.7623 0-5 2.31-5 5.16 0 1.68.7694 3.1598 1.9852 4.0998.5544.43.9901.9902.9901 1.7602l.0247.98h4l.029-.98c.039-.77.431-1.3302.986-1.7602 1.216-.94 1.985-2.4198 1.985-4.0998 0-2.85-2.238-5.16-5-5.16zm0 2.0605c1.6535 0 3.005 1.3895 3.005 3.0995 0 .97-.438 1.8694-1.1965 2.4494-1.1283.88-1.556 1.8597-1.7116 2.6796h-.1938c-.1556-.8199-.5833-1.7996-1.7116-2.6796-.7587-.58-1.1968-1.4794-1.1968-2.4494 0-1.71 1.3518-3.0995 3.0053-3.0995zm-2 10.9395v2c0 1 1.0274 1 1.0274 1h1.9452s1.0564 0 1.0274-1v-2z" fill="#bebebe"/></svg>

<svg xmlns="http://www.w3.org/2000/svg" width="16" height="16" version="1.1">
 <defs>
  <style id="current-color-scheme" type="text/css">
   .ColorScheme-Text { color:#bebebe; } .ColorScheme-Highlight { color:#4285f4; }
  </style>
 </defs>
 <path style="fill:currentColor" class="ColorScheme-Text" d="M 8,0 C 5.2377,0 3,2.31 3,5.16 3,6.84 3.7694,8.3198 4.9852,9.2598 5.5396,9.6898 5.9753,10.25 5.9753,11.02 L 6,12 H 10 L 10.029,11.02 C 10.068,10.25 10.46,9.6898 11.015,9.2598 12.231,8.3198 13,6.84 13,5.16 13,2.31 10.762,0 8,0 Z M 8,2.0605 C 9.6535,2.0605 11.005,3.45 11.005,5.16 11.005,6.13 10.567,7.0294 9.8085,7.6094 8.6802,8.4894 8.2525,9.4691 8.0969,10.289 H 7.9031 C 7.7475,9.4691 7.3198,8.4894 6.1915,7.6094 5.4328,7.0294 4.9947,6.13 4.9947,5.16 4.9947,3.45 6.3465,2.0605 8,2.0605 Z M 6,13 V 15 C 6,16 7.0274,16 7.0274,16 H 8.9726 C 8.9726,16 10.029,16 10,15 V 13 Z"/>
</svg>
